X:1
T:Big Mike's Jig
R:jig
C:Kinnon Beaton
D:Andrea Beaton, The Tap Session
O:Cape Breton
B:The Beaton Collection
Z:Paul Stewart Cranford (P.S.C.), <http://www.cranfordpub.com>
L:1/8
M:6/8
Q:300
Z: Contributed 2016-02-19 05:04:57 by lydia whitehouse lydia_onthebeast@hotmail.com
K:A
E|A3 cBA|FAd fga|e3 cBA|BcA GFE|
A3 cBA|FAd fga|eac BAB|[1cAA A2:|[2cAA Aed||
|:c3 ecA|FAd fga|e3 cBA|BcA GFE|
[1c3 ecA|FAd fga|eac BAB|cAA Aed:|
[2e2 A cBA|FAd fga|eac BAB|cAA A2|]

